X:11921
T:no name
R:slide
Z:id:hn-slide-27
M:6/8
K:G
D2G GAG|E2A A2G|F2D DEF|G2A B2G|
D2G GAG|E2A A2G|F2D DEF|1 G3 G2E:|2 G3 G2A||
|:B2B BAB|c3 c2B|A3 AGA|B3 B2G|
D2G GAG|E2A A2G|F2D DEF|1 G3 G2A:|2 G3 G2E||


